MonoIcons/scalable/status/weather-showers-symbolic.svg

<?xml version="1.0" encoding="UTF-8"?>
<svg height="16px" viewBox="0 0 16 16" width="16px" xmlns="http://www.w3.org/2000/svg">
    <path d="m 9.464844 0 c -1.273438 0 -2.304688 0.972656 -2.449219 2.21875 c -0.320313 -0.121094 -0.65625 -0.21875 -1.023437 -0.21875 c -1.640626 0 -2.972657 1.34375 -2.972657 3 c 0 0.097656 0.023438 0.183594 0.03125 0.28125 c -0.296875 -0.179688 -0.652343 -0.28125 -1.023437 -0.28125 c -1.09375 0 -1.9843752 0.894531 -1.9843752 2 s 0.8906252 2 1.9843752 2 h 12.394531 c 0.824219 0 1.488281 -0.671875 1.488281 -1.5 s -0.664062 -1.5 -1.488281 -1.5 c -0.203125 0 -0.410156 0.050781 -0.589844 0.125 c 0.054688 -0.203125 0.09375 -0.40625 0.09375 -0.625 c 0 -1.230469 -0.882812 -2.226562 -2.042969 -2.4375 c 0.042969 -0.179688 0.0625 -0.367188 0.0625 -0.5625 c 0 -1.378906 -1.109374 -2.5 -2.480468 -2.5 z m -7.027344 10 c -0.210938 0.027344 -0.386719 0.1875 -0.429688 0.394531 l -1 4.921875 c -0.023437 0.128906 0 0.261719 0.074219 0.375 c 0.070313 0.109375 0.183594 0.183594 0.3125 0.210938 c 0.132813 0.027344 0.265625 0 0.375 -0.074219 c 0.109375 -0.070313 0.1875 -0.183594 0.210938 -0.316406 l 1 -4.917969 c 0.027343 -0.128906 0.003906 -0.261719 -0.070313 -0.371094 c -0.070312 -0.109375 -0.183594 -0.1875 -0.316406 -0.210937 c -0.050781 -0.011719 -0.101562 -0.015625 -0.15625 -0.011719 z m 8.007812 0 c -0.214843 0.027344 -0.386718 0.1875 -0.429687 0.394531 l -1 4.921875 c -0.027344 0.128906 0 0.261719 0.070313 0.375 c 0.074218 0.109375 0.1875 0.183594 0.316406 0.210938 s 0.265625 0 0.375 -0.074219 c 0.109375 -0.070313 0.183594 -0.183594 0.210937 -0.316406 l 1 -4.917969 c 0.027344 -0.128906 0 -0.261719 -0.070312 -0.371094 c -0.074219 -0.109375 -0.1875 -0.1875 -0.316407 -0.210937 c -0.050781 -0.011719 -0.105468 -0.015625 -0.15625 -0.011719 z m 2 0 c -0.210937 0.027344 -0.386718 0.1875 -0.429687 0.394531 l -1 4.921875 c -0.023437 0.128906 0 0.261719 0.074219 0.375 c 0.070312 0.109375 0.183594 0.183594 0.3125 0.210938 c 0.132812 0.027344 0.265625 0 0.375 -0.074219 c 0.109375 -0.070313 0.1875 -0.183594 0.210937 -0.316406 l 1 -4.917969 c 0.027344 -0.128906 0.003907 -0.261719 -0.070312 -0.371094 c -0.070313 -0.109375 -0.183594 -0.1875 -0.316407 -0.210937 c -0.050781 -0.011719 -0.101562 -0.015625 -0.15625 -0.011719 z m -6.003906 0.003906 c -0.210937 0.023438 -0.382812 0.183594 -0.429687 0.394532 l -1 4.917968 c -0.023438 0.128906 0 0.261719 0.074219 0.375 c 0.070312 0.109375 0.183593 0.183594 0.3125 0.210938 c 0.269531 0.054687 0.53125 -0.121094 0.585937 -0.386719 l 1 -4.917969 c 0.027344 -0.132812 0.003906 -0.265625 -0.070313 -0.375 c -0.074218 -0.109375 -0.1875 -0.1875 -0.316406 -0.210937 c -0.050781 -0.011719 -0.101562 -0.015625 -0.15625 -0.007813 z m 2.003906 0 c -0.214843 0.023438 -0.386718 0.183594 -0.429687 0.394532 l -1.003906 4.917968 c -0.023438 0.128906 0 0.265625 0.074219 0.375 c 0.074218 0.109375 0.1875 0.183594 0.316406 0.210938 c 0.269531 0.054687 0.53125 -0.121094 0.582031 -0.386719 l 1 -4.917969 c 0.027344 -0.132812 0.003906 -0.265625 -0.070313 -0.375 c -0.070312 -0.109375 -0.183593 -0.1875 -0.316406 -0.210937 c -0.050781 -0.011719 -0.101562 -0.015625 -0.152344 -0.007813 z m -4.003906 0.003906 c -0.210937 0.023438 -0.386718 0.183594 -0.429687 0.394532 l -1 4.914062 c -0.027344 0.128906 0 0.261719 0.070312 0.375 c 0.074219 0.109375 0.1875 0.183594 0.316407 0.210938 c 0.128906 0.027344 0.265624 0 0.375 -0.074219 c 0.109374 -0.070313 0.183593 -0.183594 0.210937 -0.3125 l 1 -4.914063 c 0.027344 -0.128906 0.003906 -0.265624 -0.070313 -0.375 c -0.070312 -0.109374 -0.183593 -0.1875 -0.316406 -0.210937 c -0.050781 -0.011719 -0.101562 -0.015625 -0.15625 -0.011719 z m 0 0" fill="#2e3436"/>
</svg>

<svg width="16" height="16" viewBox="0 0 16 16" fill="none" xmlns="http://www.w3.org/2000/svg">
<g clip-path="url(#clip0_231_1195)">
<path d="M9.46484 0C8.19141 0 7.16016 0.972656 7.01563 2.21875C6.69531 2.09766 6.35938 2 5.99219 2C4.35156 2 3.01953 3.34375 3.01953 5C3.01953 5.09766 3.04297 5.1836 3.05078 5.28125C2.75391 5.10156 2.39844 5 2.02734 5C0.933594 5 0.0429688 5.89453 0.0429688 7C0.0429688 8.10547 0.933594 9 2.02734 9H14.4219C15.2461 9 15.9102 8.32813 15.9102 7.5C15.9102 6.67188 15.2461 6 14.4219 6C14.2188 6 14.0117 6.05078 13.832 6.125C13.8867 5.92188 13.9258 5.71875 13.9258 5.5C13.9258 4.26953 13.043 3.27344 11.8828 3.0625C11.9258 2.88281 11.9453 2.69531 11.9453 2.5C11.9453 1.12109 10.8359 0 9.46484 0V0ZM2.4375 10C2.22656 10.0273 2.05078 10.1875 2.00781 10.3945L1.00781 15.3164C0.984375 15.4453 1.00781 15.5781 1.08203 15.6914C1.15234 15.8008 1.26563 15.875 1.39453 15.9023C1.52734 15.9297 1.66016 15.9023 1.76953 15.8281C1.87891 15.7578 1.95703 15.6445 1.98047 15.5117L2.98047 10.5938C3.00781 10.4648 2.98438 10.332 2.91016 10.2227C2.83984 10.1133 2.72656 10.0352 2.59375 10.0117C2.54297 10 2.49219 9.9961 2.4375 10V10ZM10.4453 10C10.2305 10.0273 10.0586 10.1875 10.0156 10.3945L9.01563 15.3164C8.98828 15.4453 9.01563 15.5781 9.08594 15.6914C9.16016 15.8008 9.27344 15.875 9.40234 15.9023C9.53125 15.9297 9.66797 15.9023 9.77734 15.8281C9.88672 15.7578 9.96094 15.6445 9.98828 15.5117L10.9883 10.5938C11.0156 10.4648 10.9883 10.332 10.918 10.2227C10.8438 10.1133 10.7305 10.0352 10.6016 10.0117C10.5508 10 10.4961 9.9961 10.4453 10V10ZM12.4453 10C12.2344 10.0273 12.0586 10.1875 12.0156 10.3945L11.0156 15.3164C10.9922 15.4453 11.0156 15.5781 11.0898 15.6914C11.1602 15.8008 11.2734 15.875 11.4023 15.9023C11.5352 15.9297 11.668 15.9023 11.7773 15.8281C11.8867 15.7578 11.9648 15.6445 11.9883 15.5117L12.9883 10.5938C13.0156 10.4648 12.9922 10.332 12.918 10.2227C12.8477 10.1133 12.7344 10.0352 12.6016 10.0117C12.5508 10 12.5 9.9961 12.4453 10V10ZM6.44141 10.0039C6.23047 10.0273 6.05859 10.1875 6.01172 10.3984L5.01172 15.3164C4.98828 15.4453 5.01172 15.5781 5.08594 15.6914C5.15625 15.8008 5.26953 15.875 5.39844 15.9023C5.66797 15.957 5.92969 15.7813 5.98438 15.5156L6.98438 10.5977C7.01172 10.4648 6.98828 10.332 6.91406 10.2227C6.83984 10.1133 6.72656 10.0352 6.59766 10.0117C6.54688 10 6.49609 9.9961 6.44141 10.0039V10.0039ZM8.44531 10.0039C8.23047 10.0273 8.05859 10.1875 8.01563 10.3984L7.01172 15.3164C6.98828 15.4453 7.01172 15.582 7.08594 15.6914C7.16016 15.8008 7.27344 15.875 7.40235 15.9023C7.67188 15.957 7.93359 15.7813 7.98438 15.5156L8.98438 10.5977C9.01172 10.4648 8.98828 10.332 8.91406 10.2227C8.84375 10.1133 8.73047 10.0352 8.59766 10.0117C8.54688 10 8.49609 9.9961 8.44531 10.0039ZM4.44141 10.0078C4.23047 10.0313 4.05469 10.1914 4.01172 10.4023L3.01172 15.3164C2.98438 15.4453 3.01172 15.5781 3.08203 15.6914C3.15625 15.8008 3.26953 15.875 3.39844 15.9023C3.52734 15.9297 3.66406 15.9023 3.77344 15.8281C3.88281 15.7578 3.95703 15.6445 3.98438 15.5156L4.98438 10.6016C5.01172 10.4727 4.98828 10.3359 4.91406 10.2266C4.84375 10.1172 4.73047 10.0391 4.59766 10.0156C4.54688 10.0039 4.49609 10 4.44141 10.0039V10.0078Z" fill="#2E3436"/>
</g>
<defs>
<clipPath id="clip0_231_1195">
<rect width="16" height="16" fill="white"/>
</clipPath>
</defs>
</svg>
